X: 28499
T: Munster Bank, The
R: polka
M: 2/4
K: Amajor
AF EF|AB ce|fe c2|BA AF|
AF EF|AB ce|fe c2|BA Az:|
fe ce|fe ce|af ec|BA FA|
AF EF|AB ce|fe c2|BA Az:|

